svg/fluentui-system-icons/ic_fluent_calendar_mention_20_filled.svg

<svg width="20" height="20" viewBox="0 0 20 20" fill="none" xmlns="http://www.w3.org/2000/svg">
<path d="M17 7V10.416C16.3875 10.1484 15.7111 10 15 10C12.2386 10 10 12.2386 10 15C10 15.7111 10.1484 16.3875 10.416 17H5.5C4.11929 17 3 15.8807 3 14.5V7H17ZM14.5 3C15.8807 3 17 4.11929 17 5.5V6H3V5.5C3 4.11929 4.11929 3 5.5 3H14.5ZM15.0015 12C13.3438 12 12 13.3438 12 15.0015C12 16.6592 13.3438 18.003 15.0015 18.003C15.4614 18.003 15.8916 17.898 16.2847 17.7105C16.5339 17.5916 16.8324 17.6972 16.9513 17.9465C17.0702 18.1957 16.9645 18.4941 16.7153 18.613C16.1945 18.8615 15.6177 19.003 15.0015 19.003C12.7915 19.003 11 17.2115 11 15.0015C11 12.7915 12.7915 11 15.0015 11C17.2102 11 19.0009 12.7894 19.003 14.9975L19.003 15V15.498C19.003 16.3272 18.3308 16.9995 17.5015 16.9995C17.0428 16.9995 16.6321 16.7938 16.3567 16.4695C16.0001 16.7988 15.5236 17 15 17C13.8954 17 13 16.1046 13 15C13 13.8954 13.8954 13 15 13C15.4359 13 15.8393 13.1395 16.1679 13.3762C16.2562 13.2977 16.3725 13.25 16.5 13.25C16.7761 13.25 17 13.4739 17 13.75V15.498C17 15.775 17.2245 15.9995 17.5015 15.9995C17.7785 15.9995 18.003 15.775 18.003 15.498V15.0015C18.003 13.3438 16.6592 12 15.0015 12ZM14 15C14 15.5523 14.4477 16 15 16C15.5523 16 16 15.5523 16 15C16 14.4477 15.5523 14 15 14C14.4477 14 14 14.4477 14 15Z" fill="#212121"/>
</svg>

<svg xmlns="http://www.w3.org/2000/svg" width="20" height="20"><path d="M17 7v3.416A5 5 0 0 0 10.416 17H5.5A2.5 2.5 0 0 1 3 14.5V7h14Zm-2.5-4A2.5 2.5 0 0 1 17 5.5V6H3v-.5A2.5 2.5 0 0 1 5.5 3h9Zm.502 9a3.001 3.001 0 1 0 0 6.003c.46 0 .89-.105 1.283-.293a.5.5 0 1 1 .43.903c-.52.248-1.097.39-1.713.39a4.001 4.001 0 1 1 4.001-4.005v.5a1.502 1.502 0 0 1-2.646.972 2 2 0 1 1-.189-3.093.5.5 0 0 1 .832.374v1.747a.501.501 0 1 0 1.003 0v-.496A3.001 3.001 0 0 0 15.001 12ZM14 15a1 1 0 1 0 2 0 1 1 0 0 0-2 0Z"/></svg>
